communes/755.svg

<?xml version="1.0" encoding="UTF-8"?>
<svg version="1.0" viewBox="0 0 603 763" xmlns="http://www.w3.org/2000/svg" xmlns:cc="http://web.resource.org/cc/" xmlns:dc="http://purl.org/dc/elements/1.1/" xmlns:rdf="http://www.w3.org/1999/02/22-rdf-syntax-ns#" xmlns:xlink="http://www.w3.org/1999/xlink">
<metadata>
<rdf:RDF>
<cc:Work rdf:about="">
<dc:format>image/svg+xml</dc:format>
<dc:type rdf:resource="http://purl.org/dc/dcmitype/StillImage"/>
<dc:date>07-AUG-2006</dc:date>
<dc:creator>
<cc:Agent>
<dc:title>Jérôme BLUM (wagner51)</dc:title>
</cc:Agent>
</dc:creator>
<cc:license rdf:resource="http://creativecommons.org/licenses/GPL/2.0/"/>
<dc:coverage/>
<dc:description>Gabarit pour le Projet:Blasons de WIkipédia</dc:description>
<dc:subject>
<rdf:Bag>
<rdf:li>blason suisse modèle gabarit projet blasons</rdf:li>
</rdf:Bag>
</dc:subject>
<dc:language>fr</dc:language>
<dc:title>Gabrit d'un blason suisse</dc:title>
</cc:Work>
<cc:License rdf:about="http://creativecommons.org/licenses/GPL/2.0/">
<cc:permits rdf:resource="http://web.resource.org/cc/Reproduction"/>
<cc:permits rdf:resource="http://web.resource.org/cc/Distribution"/>
<cc:requires rdf:resource="http://web.resource.org/cc/Notice"/>
<cc:permits rdf:resource="http://web.resource.org/cc/DerivativeWorks"/>
<cc:requires rdf:resource="http://web.resource.org/cc/ShareAlike"/>
<cc:requires rdf:resource="http://web.resource.org/cc/SourceCode"/>
</cc:License>
</rdf:RDF>
</metadata>
<defs>
<radialGradient id="a" cx="858.04" cy="579.93" r="300" gradientTransform="matrix(1.215 1.5316e-24 1.4647e-23 1.2667 -839.19 -490.49)" gradientUnits="userSpaceOnUse">
<stop stop-color="#fff" stop-opacity=".31373" offset="0"/>
<stop stop-color="#fff" stop-opacity=".25098" offset=".19"/>
<stop stop-color="#6b6b6b" stop-opacity=".12549" offset=".6"/>
<stop stop-opacity=".12549" offset="1"/>
</radialGradient>
</defs>
<desc>Coat of Arms of Canton of Freiburg (Fribourg)</desc>
<path d="m1.5 1.5v458.87c0 166.31 134.31 301.13 300 301.13 165.69 0 300-134.82 300-301.13v-458.87h-600z" fill="#2b5df2"/>
<g transform="matrix(4.1645 0 0 4.1645 -2598.2 -2379)" fill-rule="evenodd" stroke="#000" stroke-width="1px">
<path d="m739.36 639.47c-0.25154 3.5832 0.02056 9.6235-1.7716 14.239-34.645 32.441-16.399 52.005 2.0396 71.521-2.1184 1.9061-6.6973 5.6958-9.768 7.3845-25.099-36.874-26.826-57.914 18.692-102.44-45.487 44.629-43.876 65.48-18.692 102.44-1.8371 1.3729-6.0743 2.8659-8.5088 3.8269-39.321-66.573 27.532-123.24 27.933-118.76-0.31546-4.5324-67.2 52.149-27.933 118.76-1.5224 0.31735-6.6279 2.0617-7.995 2.1046l0.91495 2.6211c-2.2248 0.65412-7.7306 1.2227-9.9759 1.6186-3.6484-30.655-13.287-97.762 16.647-139.29-29.917 41.533-20.241 108.67-16.647 139.29-5.6422 0.51028-12.175 0.53984-18.419-0.20458 3.0253-20.546 14.167-89.187-16.695-137.84 30.815 48.772 19.759 117.18 16.695 137.84-1.3662-0.27452-7.879-1.4129-9.1666-1.78l0.73197-2.6211c-2.927-0.27898-6.8336-1.6866-9.7766-2.6988 41.359-64.527-29.957-121.49-24.501-116.67-5.3661-4.7409 65.96 52.16 24.501 116.67-2.2228-0.96247-4.7405-2.2099-7.1829-3.7069 10.719-21.351 38.518-49.191-17.871-100.62 56.433 51.473 28.756 79.191 17.871 100.62-2.2728-1.5903-6.6372-4.8866-8.2235-6.8882 20.395-22.187 29.649-47.129-1.7623-73.017-0.91632-5.2229-1.4564-8.1175-0.45582-14.248-0.96671 6.0954-0.45434 9.0909 0.45582 14.248 1.569 6.8304 4.8489 17.365 7.6772 23.566-13.359-10.358-17.644-26.951-18.073-37.546 0.85783-5.584 3.5296-12.267 7.1806-15.753-3.6533 3.4432-6.3921 10.118-7.1806 15.753-1.2651 8.7406-1.7743 17.179-1.0119 25.108-5.7499-9.3382-8.908-24.438-2.2962-39.321 5.58-5.7016 12.911-9.5516 21.437-10.156-8.5083 0.52473-15.955 4.4279-21.437 10.156-5.972 5.7953-7.4057 14.066-9.227 22.125-1.8654-14.559-2.1436-30.283 20.598-42.415 10.446-0.18764 20.92 1.1127 29.778 2.5384-8.8428-1.412-19.302-2.754-29.864-2.4737 3.9482 2.6798 6.5639 5.7324 10.483 9.7818-3.9659-4.003-6.5489-7.1847-10.601-9.8465-6.0857-0.33736-12.358 0.8068-18.931 4.3683 13.207-11.224 25.149-16.046 39.451-11.83 7.842 5.581 13.157 14.304 18.17 23.17-5.0437-8.9052-10.253-17.617-18.17-23.17-5.7273-4.7258-12.979-6.4035-20.124-8.2938 19.838-10.126 33.253 4.4924 39.026 17.928-4.1791-10.189-8.8223-19.797-14.941-27.562 10.865 4.171 18.155 11.321 23.17 20.366 5.8186-10.22 11.28-16.301 20.183-19.634-5.3395 7.2404-10.02 15.14-13.412 24.327 12.488-19.126 28.605-19.106 38.902-15.85-4.6784 0.34525-10.866 2.8953-15.824 5.8113-12.751 7.4987-15.716 17.388-21.797 26.444 6.2224-9.0379 9.1422-19.019 21.582-26.281 16.167-0.66061 27.37 4.7463 34.758 14.817-5.331-3.3426-9.8438-4.2783-15.923-5.0653-8.4127-1.0831-21.314-0.53995-31.378 1.6207 10.136-2.1623 22.979-2.7156 31.311-1.6348 0.57345 0.13735-14.111 8.9719-13.53 9.154 0.8989 0.28186 12.721-9.4752 13.624-9.082 10.551 4.5916 23.035 17.32 20.663 41.433-2.4937-7.6483-5.8296-14.45-9.1512-19.641-5.132-8.7568-13.935-12.64-25.166-12.736 11.224 0.11591 20.042 3.9573 24.887 12.553 1.4032 4.8178 7.2832 22.752-7.3507 39.313 2.7539-9.7207 2.4854-19.777 1.4472-29.919-0.82004-5.7121-1.5312-7.8155-6.0426-13.155 4.5096 5.4535 5.2525 7.4943 5.6234 13.17-0.53611 15.101-4.1523 30.952-17.435 42.749 3.1937-6.5832 6.6998-14.886 6.8886-22.972 0.85383-4.6051 0.626-10.745 0.88769-14.315z" fill="#fcef3c"/>
<path d="m658.78 606.5c-0.40809 0.21143-0.10906 1.8002 1.2188 4.4688 0.06782 0.1363 0.12001 0.27031 0.1875 0.40625-1.8806 1.3624-2.8897 3.8893-1.4688 7l11.031 26.312c1.4262 3.192 4.1469 4.1648 6.5 3.6875 14.476 40.619 8.8502 61.322 0.25 89.094 0.13842 0.65172 0.33646 0.65025 0.9375 0.71875l-0.45104 2.3784 0.63854-0.03466c9.3856-29.954 15.839-52.735 1.0312-93.281 1.7372-1.4043 2.5866-3.8602 1.0938-6.7812l-11.031-26.438c-1.3827-3.3293-4.3333-4.186-6.7812-3.4688-0.04451-0.08392-0.08035-0.16595-0.125-0.25-1.5181-2.8576-2.6232-4.0239-3.0312-3.8125z"/>
<path d="m730.97 606.5c-0.50566 0.12067-1.5154 1.3121-2.8438 3.8125-0.04465 0.08405-0.08046 0.16608-0.125 0.25-2.448-0.71726-5.3985 0.13945-6.7812 3.4688l-11.031 26.438c-1.4928 2.9211-0.64342 5.377 1.0938 6.7812-14.808 40.546-7.9723 63.837 1.4133 93.791l1.1259-0.41667-0.88396-1.7914 0.75569-0.85446c-8.6002-27.772-14.481-48.984-0.00469-89.603 2.3531 0.47733 5.0739-0.49547 6.5-3.6875l11.031-26.312c1.421-3.1107 0.41193-5.6376-1.4688-7 0.06749-0.13594 0.11971-0.26995 0.1875-0.40625 1.3278-2.6686 1.6269-4.2573 1.2188-4.4688-0.05101-0.02643-0.11526-0.01724-0.1875 0z"/>
<path d="m695.53 588.69c-0.5442 2.5e-4 -1.0974 0.7178-1.0938 2.125v10.906c-2.4704 0.61371-4.3438 3.6543-4.3438 7.375v25.812c0 3.6917 1.8395 6.7281 4.2812 7.375l-0.09375 100.53h2.9688l-0.40625-100.72c2.1718-0.9201 3.75-3.7692 3.75-7.1875v-25.812c0-3.495-1.6589-6.3682-3.9062-7.2188l-0.03125-11.062c-0.02279-1.4082-0.5808-2.1252-1.125-2.125z"/>
<g fill="#fcef3c">
<path d="m670 678h50c6.3806 0.61605 5.6533 9.9015-1.8115 10h-47.283c-9.4038-0.0399-8.1595-9.8736-0.90576-10z"/>
<path d="m672.02 678.26 7.8467 10.129"/>
<path d="m684.35 678.26 7.3291 9.8706"/>
<path d="m696.16 678.39 7.4585 10"/>
<path d="m707.98 677.87 7.0703 10.259"/>
</g>
</g>
<g>
<path d="m1.5 1.5v458.87c0 166.31 134.31 301.13 300 301.13 165.69 0 300-134.82 300-301.13v-458.87h-600z" fill="url(#a)"/>
<path d="m1.5 1.5v458.87c0 166.31 134.31 301.13 300 301.13 165.69 0 300-134.82 300-301.13v-458.87h-600z" fill="none" stroke="#000" stroke-width="3"/>
</g>
</svg>

<?xml version="1.0" encoding="UTF-8" standalone="no"?>
<svg
   xmlns:dc="http://purl.org/dc/elements/1.1/"
   xmlns:cc="http://web.resource.org/cc/"
   xmlns:rdf="http://www.w3.org/1999/02/22-rdf-syntax-ns#"
   xmlns:svg="http://www.w3.org/2000/svg"
   xmlns="http://www.w3.org/2000/svg"
   xmlns:xlink="http://www.w3.org/1999/xlink"
   xmlns:sodipodi="http://sodipodi.sourceforge.net/DTD/sodipodi-0.dtd"
   xmlns:inkscape="http://www.inkscape.org/namespaces/inkscape"
   height="763"
   width="603"
   version="1.0"
   id="svg20"
   sodipodi:version="0.32"
   inkscape:version="0.44.1"
   sodipodi:docname="Worben-coat of arms.svg"
   sodipodi:docbase="F:\Mis Documentos\Mis imágenes\Encyclopédie\Escudos de Suiza">
  <metadata
     id="metadata31">
    <rdf:RDF>
      <cc:Work
         rdf:about="">
        <dc:format>image/svg+xml</dc:format>
        <dc:type
           rdf:resource="http://purl.org/dc/dcmitype/StillImage" />
        <dc:date>07-AUG-2006</dc:date>
        <dc:creator>
          <cc:Agent>
            <dc:title>Jérôme BLUM (wagner51)</dc:title>
          </cc:Agent>
        </dc:creator>
        <cc:license
           rdf:resource="http://creativecommons.org/licenses/GPL/2.0/" />
        <dc:coverage />
        <dc:description>Gabarit pour le Projet:Blasons de WIkipédia</dc:description>
        <dc:subject>
          <rdf:Bag>
            <rdf:li>blason suisse modèle gabarit projet blasons</rdf:li>
          </rdf:Bag>
        </dc:subject>
        <dc:language>fr</dc:language>
        <dc:title>Gabrit d'un blason suisse</dc:title>
      </cc:Work>
      <cc:License
         rdf:about="http://creativecommons.org/licenses/GPL/2.0/">
        <cc:permits
           rdf:resource="http://web.resource.org/cc/Reproduction" />
        <cc:permits
           rdf:resource="http://web.resource.org/cc/Distribution" />
        <cc:requires
           rdf:resource="http://web.resource.org/cc/Notice" />
        <cc:permits
           rdf:resource="http://web.resource.org/cc/DerivativeWorks" />
        <cc:requires
           rdf:resource="http://web.resource.org/cc/ShareAlike" />
        <cc:requires
           rdf:resource="http://web.resource.org/cc/SourceCode" />
      </cc:License>
    </rdf:RDF>
  </metadata>
  <defs
     id="defs29">
    <linearGradient
       id="linearGradient2893">
      <stop
         style="stop-color:#ffffff;stop-opacity:0.3137255;"
         offset="0"
         id="stop2895" />
      <stop
         id="stop2897"
         offset="0.19"
         style="stop-color:#ffffff;stop-opacity:0.25098041;" />
      <stop
         style="stop-color:#6b6b6b;stop-opacity:0.1254902;"
         offset="0.60000002"
         id="stop2901" />
      <stop
         style="stop-color:#000000;stop-opacity:0.1254902;"
         offset="1"
         id="stop2899" />
    </linearGradient>
    <linearGradient
       id="linearGradient2955">
      <stop
         style="stop-color:white;stop-opacity:0;"
         offset="0"
         id="stop2965" />
      <stop
         style="stop-color:black;stop-opacity:0.64583331;"
         offset="1"
         id="stop2959" />
    </linearGradient>
    <radialGradient
       inkscape:collect="always"
       xlink:href="#linearGradient2893"
       id="radialGradient3236"
       gradientUnits="userSpaceOnUse"
       gradientTransform="matrix(1.215027,1.531577e-24,1.464684e-23,1.266667,-839.1924,-490.4894)"
       cx="858.04236"
       cy="579.93323"
       fx="858.04236"
       fy="579.93323"
       r="300" />
  </defs>
  <sodipodi:namedview
     inkscape:window-height="682"
     inkscape:window-width="1024"
     inkscape:pageshadow="2"
     inkscape:pageopacity="0.0"
     guidetolerance="10.0"
     gridtolerance="10.0"
     objecttolerance="10.0"
     borderopacity="1.0"
     bordercolor="#666666"
     pagecolor="#ffffff"
     id="base"
     inkscape:zoom="0.5"
     inkscape:cx="261.48834"
     inkscape:cy="396.95895"
     inkscape:window-x="-4"
     inkscape:window-y="-4"
     inkscape:current-layer="layer2"
     showgrid="true" />
  <desc
     id="desc22">Coat of Arms of Canton of Freiburg (Fribourg)</desc>
  <g
     inkscape:groupmode="layer"
     id="layer1"
     inkscape:label="Fond écu"
     sodipodi:insensitive="true">
    <path
       id="path1899"
       d="M 1.5,1.49998 L 1.5,460.3679 C 1.5,626.6785 135.81456,761.5 301.49999,761.5 C 467.18543,761.5 601.5,626.6785 601.5,460.3679 L 601.5,1.49998 L 1.5,1.49998 z "
       style="fill:#2b5df2;fill-opacity:1" />
  </g>
  <g
     inkscape:groupmode="layer"
     id="layer2"
     inkscape:label="Meubles"
     sodipodi:insensitive="true">
    <g
       id="g9963"
       transform="matrix(4.16448,0,0,4.16448,-2598.161,-2378.954)">
      <path
         style="fill:#fcef3c;fill-opacity:1;fill-rule:evenodd;stroke:black;stroke-width:1px;stroke-linecap:butt;stroke-linejoin:miter;stroke-opacity:1"
         d="M 739.35683,639.4728 C 739.10529,643.05601 739.37739,649.09626 737.58518,653.71169 C 702.94064,686.15284 721.18638,705.71634 739.62482,725.23293 C 737.50642,727.13902 732.92756,730.92877 729.85686,732.61739 C 704.75799,695.74304 703.03064,674.70318 748.54906,630.18213 C 703.06248,674.81136 704.67309,695.66218 729.85686,732.61739 C 728.01978,733.99026 723.78256,735.48327 721.34808,736.44432 C 682.02715,669.8712 748.87968,613.20056 749.28148,617.68524 C 748.96602,613.15285 682.08164,669.83466 721.34808,736.44432 C 719.82564,736.76167 714.72019,738.50602 713.35308,738.54897 L 714.26803,741.17008 C 712.04323,741.8242 706.53748,742.39274 704.2921,742.78872 C 700.64368,712.13421 691.0053,645.02633 720.93887,603.50195 C 691.02186,645.03513 700.69828,712.16705 704.2921,742.78872 C 698.64985,743.299 692.11719,743.32856 685.87273,742.58414 C 688.898,722.03769 700.04017,653.39666 669.17796,604.74171 C 699.99288,653.51394 688.93689,721.92533 685.87273,742.58414 C 684.50658,742.30962 677.99378,741.17126 676.70615,740.8041 L 677.43812,738.18299 C 674.51116,737.90401 670.6045,736.49635 667.66154,735.48423 C 709.02031,670.95722 637.70424,613.99531 643.16081,618.81375 C 637.7947,614.07289 709.12112,670.97363 667.66154,735.48423 C 665.43871,734.52176 662.92108,733.27434 660.47861,731.77733 C 671.19783,710.42621 698.99677,682.58627 642.60779,631.15782 C 699.04036,682.63096 671.36376,710.34855 660.47861,731.77733 C 658.20583,730.187 653.84137,726.89069 652.25513,724.88914 C 672.6501,702.70199 681.90449,677.75968 650.49285,651.87206 C 649.57653,646.6492 649.03646,643.75459 650.03703,637.62425 C 649.07032,643.71963 649.58269,646.71511 650.49285,651.87206 C 652.06187,658.70242 655.34174,669.23742 658.17008,675.43812 C 644.81129,665.08051 640.52562,648.48686 640.09692,637.89171 C 640.95475,632.30776 643.62652,625.62496 647.27749,622.13831 C 643.62418,625.58151 640.88536,632.25608 640.09692,637.89171 C 638.83181,646.63227 638.32261,655.07046 639.08504,663 C 633.33514,653.66177 630.17707,638.56183 636.78887,623.67866 C 642.36891,617.97708 649.69989,614.1271 658.22623,613.52281 C 649.71795,614.04754 642.27088,617.95075 636.78887,623.67866 C 630.81685,629.47397 629.38316,637.74475 627.56188,645.8041 C 625.69643,631.24548 625.41826,615.52089 648.1601,603.38944 C 658.60628,603.2018 669.0802,604.50215 677.93847,605.92786 C 669.09571,604.5159 658.63665,603.17381 648.07433,603.45414 C 652.02255,606.13394 654.63824,609.18654 658.55773,613.23591 C 654.5918,609.23291 652.00886,606.05125 647.95713,603.38944 C 641.87144,603.05208 635.59887,604.19624 629.02581,607.75778 C 642.23253,596.53386 654.17438,591.71213 668.47684,595.92786 C 676.31887,601.50883 681.63394,610.23193 686.64692,619.09795 C 681.60321,610.19278 676.39354,601.48122 668.47684,595.92786 C 662.74951,591.20207 655.49816,589.52432 648.35308,587.63402 C 668.19102,577.50798 681.60616,592.12638 687.37889,605.56188 C 683.19975,595.3732 678.5566,585.76452 672.43812,578 C 683.30263,582.17103 690.59271,589.32076 695.6082,598.36598 C 701.42677,588.14563 706.88818,582.06465 715.7912,578.73197 C 710.45169,585.97232 705.77125,593.87173 702.37889,603.05923 C 714.86718,583.93313 730.98362,583.9528 741.28094,587.2088 C 736.60252,587.55405 730.41507,590.10414 725.45688,593.02009 C 712.70637,600.51877 709.74039,610.40826 703.65983,619.46393 C 709.88226,610.42599 712.80208,600.44444 725.24222,593.18299 C 741.40965,592.52238 752.61271,597.92933 760,608 C 754.66903,604.65745 750.15622,603.72167 744.07705,602.93474 C 735.66436,601.85167 722.76312,602.39479 712.69913,604.55543 C 722.83546,602.39315 735.67776,601.83983 744.01054,602.92066 C 744.58399,603.05801 729.89932,611.89256 730.48013,612.07467 C 731.37903,612.35653 743.20102,602.59948 744.10463,602.9927 C 754.65607,607.58431 767.13936,620.31306 764.76722,644.42604 C 762.27353,636.77773 758.93758,629.97644 755.61604,624.78527 C 750.48406,616.02851 741.68152,612.14521 730.45033,612.04932 C 741.67463,612.16523 750.49267,616.00663 755.33777,624.60202 C 756.74095,629.41985 762.62092,647.35379 747.98709,663.91496 C 750.74098,654.19422 750.47245,644.13765 749.43425,633.99556 C 748.61421,628.28343 747.90307,626.18009 743.39168,620.84072 C 747.90125,626.29419 748.64417,628.33506 749.01504,634.01093 C 748.47893,649.11232 744.86277,664.96338 731.58051,676.75962 C 734.77424,670.17638 738.28033,661.87312 738.46914,653.78743 C 739.32297,649.1823 739.09514,643.04227 739.35683,639.4728 z "
         id="path9072"
         sodipodi:nodetypes="ccccccccccccccccccccccccccccccccccccccccccccccccccccccscccsccssccccccccccc" />
      <path
         id="path1923"
         d="M 658.78125,606.5 C 658.37316,606.71143 658.67219,608.30017 660,610.96875 C 660.06782,611.10505 660.12001,611.23906 660.1875,611.375 C 658.30685,612.73742 657.29776,615.26432 658.71875,618.375 L 669.75,644.6875 C 671.17617,647.87953 673.89692,648.85233 676.25,648.375 C 690.72626,688.99443 685.10019,709.69685 676.5,737.46875 C 676.63842,738.12047 676.83646,738.119 677.4375,738.1875 L 676.98646,740.56591 L 677.625,740.53125 C 687.01062,710.57745 693.46411,687.79638 678.65625,647.25 C 680.39345,645.84572 681.24285,643.38983 679.75,640.46875 L 668.71875,614.03125 C 667.33605,610.70195 664.38545,609.84524 661.9375,610.5625 C 661.89299,610.47858 661.85715,610.39655 661.8125,610.3125 C 660.29444,607.45489 659.18934,606.28857 658.78125,606.5 z "
         style="fill:black;fill-opacity:1;fill-rule:evenodd;stroke:black;stroke-width:1px;stroke-linecap:butt;stroke-linejoin:miter;stroke-opacity:1"
         sodipodi:nodetypes="csccccccccccccsc" />
      <path
         id="path9960"
         d="M 730.96875,606.5 C 730.46309,606.62067 729.45332,607.81209 728.125,610.3125 C 728.08035,610.39655 728.04454,610.47858 728,610.5625 C 725.55205,609.84524 722.60148,610.70195 721.21875,614.03125 L 710.1875,640.46875 C 708.69465,643.38983 709.54408,645.84572 711.28125,647.25 C 696.47339,687.79638 703.30895,711.08683 712.69454,741.04063 L 713.82046,740.62396 L 712.9365,738.83259 L 713.69219,737.97813 C 705.092,710.20623 699.21127,688.99443 713.6875,648.375 C 716.04058,648.85233 718.76136,647.87953 720.1875,644.6875 L 731.21875,618.375 C 732.63974,615.26432 731.63068,612.73742 729.75,611.375 C 729.81749,611.23906 729.86971,611.10505 729.9375,610.96875 C 731.26531,608.30017 731.56437,606.71143 731.15625,606.5 C 731.10524,606.47357 731.04099,606.48276 730.96875,606.5 z "
         style="fill:black;fill-opacity:1;fill-rule:evenodd;stroke:black;stroke-width:1px;stroke-linecap:butt;stroke-linejoin:miter;stroke-opacity:1"
         sodipodi:nodetypes="csccccccccccccssc" />
      <path
         id="path5520"
         d="M 695.53125,588.6875 C 694.98705,588.68775 694.4338,589.4053 694.4375,590.8125 L 694.4375,601.71875 C 691.96709,602.33246 690.09375,605.37305 690.09375,609.09375 L 690.09375,634.90625 C 690.09375,638.59794 691.93326,641.63439 694.375,642.28125 L 694.28125,742.8125 L 697.25,742.8125 L 696.84375,642.09375 C 699.01559,641.17365 700.59375,638.32455 700.59375,634.90625 L 700.59375,609.09375 C 700.59375,605.59879 698.93487,602.72552 696.6875,601.875 L 696.65625,590.8125 C 696.63346,589.40428 696.07545,588.68725 695.53125,588.6875 z "
         style="fill:black;fill-opacity:1;fill-rule:evenodd;stroke:black;stroke-width:1px;stroke-linecap:butt;stroke-linejoin:miter;stroke-opacity:1" />
      <g
         id="g8180">
        <path
           style="fill:#fcef3c;fill-opacity:1;fill-rule:evenodd;stroke:black;stroke-width:1px;stroke-linecap:butt;stroke-linejoin:miter;stroke-opacity:1"
           d="M 670,678 L 720,678 C 726.38057,678.61605 725.65326,687.90153 718.18848,688 L 670.90576,688 C 661.50201,687.9601 662.74624,678.12644 670,678 z "
           id="path2848"
           sodipodi:nodetypes="ccccc" />
        <path
           style="fill:#fcef3c;fill-opacity:1;fill-rule:evenodd;stroke:black;stroke-width:1px;stroke-linecap:butt;stroke-linejoin:miter;stroke-opacity:1"
           d="M 672.02393,678.25879 L 679.87061,688.38818"
           id="path3735"
           sodipodi:nodetypes="cc" />
        <path
           style="fill:#fcef3c;fill-opacity:1;fill-rule:evenodd;stroke:black;stroke-width:1px;stroke-linecap:butt;stroke-linejoin:miter;stroke-opacity:1"
           d="M 684.35303,678.25879 L 691.68213,688.12939"
           id="path3737"
           sodipodi:nodetypes="cc" />
        <path
           style="fill:#fcef3c;fill-opacity:1;fill-rule:evenodd;stroke:black;stroke-width:1px;stroke-linecap:butt;stroke-linejoin:miter;stroke-opacity:1"
           d="M 696.16455,678.38818 L 703.62305,688.38818"
           id="path3739"
           sodipodi:nodetypes="cc" />
        <path
           style="fill:#fcef3c;fill-opacity:1;fill-rule:evenodd;stroke:black;stroke-width:1px;stroke-linecap:butt;stroke-linejoin:miter;stroke-opacity:1"
           d="M 707.97607,677.87061 L 715.04639,688.12939"
           id="path3741"
           sodipodi:nodetypes="cc" />
      </g>
    </g>
  </g>
  <g
     inkscape:groupmode="layer"
     id="layer3"
     inkscape:label="Reflet final"
     style="display:inline"
     sodipodi:insensitive="true">
    <path
       style="fill:url(#radialGradient3236);fill-opacity:1"
       d="M 1.5,1.5 L 1.5,460.3679 C 1.5,626.67854 135.81454,761.5 301.49993,761.5 C 467.1854,761.5 601.5,626.67854 601.5,460.3679 L 601.5,1.5 L 1.5,1.5 z "
       id="path2346" />
  </g>
  <g
     inkscape:groupmode="layer"
     id="layer4"
     inkscape:label="Contour final"
     style="display:inline"
     sodipodi:insensitive="true">
    <path
       style="fill:none;fill-opacity:1;stroke:#000000;stroke-width:3;stroke-miterlimit:4;stroke-dasharray:none;stroke-opacity:1"
       d="M 1.5,1.5 L 1.5,460.36794 C 1.5,626.67854 135.81454,761.5 301.49993,761.5 C 467.1854,761.5 601.5,626.67854 601.5,460.36794 L 601.5,1.5 L 1.5,1.5 z "
       id="path3239" />
  </g>
</svg>
